X: 18948
T: Ingonish
R: jig
M: 6/8
K: Bminor
|:Bee efg|faf dBA|Bee efg|fdB d3|
Bee efg|f3 dBA|B3 Bcd|AGF E3:|
|:BEE BEE|FEF DFA|BEE BEE|FED E3|
BEE BEE|FEF DFA|B3 Bcd|AGF E3:|

